X:1
T: Struan Robertson's Rant (III)
C:
R:Strathspey
Q: 128
K:Em
M:4/4
L:1/16
EE3 G3A B3A Bd3|DD3 F3E DEFG AF3|EE3 G3A B3A Be3|d3B d3F EE3 E2g2|
e3f g3e b3e g3e|f3e d3f agfe df3|e3f g3e b3e g3e|d3B A3F EE3 E2F2|
G3B E3B G3B E3B|F3A D3A F3A D3A|G3B E3B G3B E3g|f3d a3f ee3 e3f|
gb3 eb3 gb3 eb3|fa3 da3 fa3 d3a|gb3 eb3 gb3 e3f|d^cBA d3F EE3 E4||
